images/KardLandLogo.svg

<svg xmlns="http://www.w3.org/2000/svg" width="684" height="504" viewBox="0 0 684 504">
    <g fill-opacity=".198">
        <path d="m294.005 228.049-94.986 16.267c-4.698.805-8.507-2.829-8.507-8.115V69.484c0-5.287 3.809-10.225 8.507-11.029l94.986-16.267c4.698-.805 8.507 2.829 8.507 8.115V217.02c0 5.287-3.809 10.224-8.507 11.029M41.533 226.277l123.853 16.732c6.125.827 11.091-2.787 11.091-8.074V68.218c0-5.286-4.966-10.243-11.091-11.07L41.533 40.415c-6.125-.827-11.091 2.788-11.091 8.074v166.717c0 5.287 4.966 10.243 11.091 11.071M586.075 228.049l-94.987 16.267c-4.698.805-8.506-2.829-8.506-8.115V69.484c0-5.287 3.808-10.225 8.506-11.029l94.987-16.267c4.697-.805 8.506 2.829 8.506 8.115V217.02c0 5.287-3.809 10.224-8.506 11.029M333.603 226.277l123.852 16.732c6.125.827 11.091-2.787 11.091-8.074V68.218c0-5.286-4.966-10.243-11.091-11.07L333.603 40.415c-6.126-.827-11.092 2.788-11.092 8.074v166.717c0 5.287 4.966 10.243 11.092 11.071M492.04 468.428l-94.987 16.267c-4.698.805-8.506-2.828-8.506-8.115V309.863c0-5.286 3.808-10.224 8.506-11.029l94.987-16.267c4.698-.804 8.506 2.829 8.506 8.116v166.716c0 5.287-3.808 10.225-8.506 11.029M199.971 468.428l-94.987 16.267c-4.698.805-8.506-2.828-8.506-8.115V309.863c0-5.286 3.808-10.224 8.506-11.029l94.987-16.267c4.697-.804 8.506 2.829 8.506 8.116v166.716c0 5.287-3.809 10.225-8.506 11.029M239.568 466.656l123.852 16.732c6.126.828 11.091-2.787 11.091-8.074V308.598c0-5.287-4.965-10.243-11.091-11.071l-123.852-16.732c-6.126-.828-11.091 2.787-11.091 8.074v166.716c0 5.287 4.965 10.244 11.091 11.071M531.637 466.656l123.853 16.732c6.125.828 11.091-2.787 11.091-8.074V308.598c0-5.287-4.966-10.243-11.091-11.071l-123.853-16.732c-6.125-.828-11.091 2.787-11.091 8.074v166.716c0 5.287 4.966 10.244 11.091 11.071"/>
    </g>
    <path fill="#c9c9c9" d="M292.939 36.485 186.049 7.624c-5.287-1.427-9.572 1.701-9.572 6.988v166.717c0 5.286 4.285 10.729 9.572 12.157l106.89 28.86c5.287 1.427 9.573-1.701 9.573-6.988V48.641c0-5.286-4.286-10.729-9.573-12.156M585.009 36.485 478.118 7.624c-5.286-1.427-9.572 1.701-9.572 6.988v166.717c0 5.286 4.286 10.729 9.572 12.157l106.891 28.86c5.286 1.427 9.572-1.701 9.572-6.988V48.641c0-5.286-4.286-10.729-9.572-12.156M198.905 277.956l-106.891-28.86c-5.286-1.427-9.572 1.701-9.572 6.988v166.717c0 5.286 4.286 10.729 9.572 12.156l106.891 28.861c5.286 1.427 9.572-1.702 9.572-6.988V290.113c0-5.287-4.286-10.729-9.572-12.157M490.974 277.956l-106.89-28.86c-5.287-1.427-9.573 1.701-9.573 6.988v166.717c0 5.286 4.286 10.729 9.573 12.156l106.89 28.861c5.286 1.427 9.572-1.702 9.572-6.988V290.113c0-5.287-4.286-10.729-9.572-12.157"/>
    <path fill="#fff" d="M40.014 36.485 146.905 7.624c5.286-1.427 9.572 1.701 9.572 6.988v166.717c0 5.286-4.286 10.729-9.572 12.157l-106.891 28.86c-5.286 1.427-9.572-1.701-9.572-6.988V48.641c0-5.286 4.286-10.729 9.572-12.156M332.084 36.485l106.89-28.861c5.287-1.427 9.572 1.701 9.572 6.988v166.717c0 5.286-4.285 10.729-9.572 12.157l-106.89 28.86c-5.287 1.427-9.573-1.701-9.573-6.988V48.641c0-5.286 4.286-10.729 9.573-12.156M530.118 277.956l106.891-28.86c5.286-1.427 9.572 1.701 9.572 6.988v166.717c0 5.286-4.286 10.729-9.572 12.156l-106.891 28.861c-5.286 1.427-9.572-1.702-9.572-6.988V290.113c0-5.287 4.286-10.729 9.572-12.157M238.049 277.956l106.89-28.86c5.287-1.427 9.572 1.701 9.572 6.988V422.8c0 5.287-4.285 10.73-9.572 12.157l-106.89 28.861c-5.287 1.427-9.572-1.702-9.572-6.988V290.113c0-5.287 4.285-10.729 9.572-12.157"/>
    <path d="M491.816 166.137V52.375q0-3.053-.79-4.841-.789-1.787-2.82-3.316v-3.152l42.922 11.5q14.1 3.778 21.657 11.418 10.829 11.077 16.018 31.28 4.118 15.877 4.118 35.675 0 34.769-12.239 49.711-5.133 6.307-12.014 7.763t-17.54-1.4l-42.922-11.501v-3.152q2.031-.441 2.82-1.805.79-1.365.79-4.418m16.808-7.316 21.093 5.652q10.096 2.705 15.172-.761 10.886-7.425 10.886-37.368 0-21.669-5.866-34.764-3.271-7.279-7.896-11.227t-12.296-6.003l-21.093-5.652zM127.047 394.305l47.32 12.68q1.749.468 2.651-.68t1.466-4.571l1.805.483v35.048l-1.805-.483q-.564-3.726-1.466-5.358t-2.651-2.1l-67.737-18.15v-3.177q2.03-.449 2.82-1.826.789-1.377.789-4.455V287.041q0-3.078-.789-4.878-.79-1.801-2.82-3.337v-3.178l24.026 6.438v3.178q-2.03.349-2.82 1.776-.789 1.426-.789 4.504zM410.135 324.851v82.407q0 3.078.79 4.878t2.82 3.337v3.178l-22.617-6.061v-3.177q2.031-.449 2.82-1.826.79-1.377.79-4.454V288.358q0-2.979-.79-4.779-.789-1.8-2.82-3.337v-3.177l26.17 7.012v3.177q-2.425.443-2.425 3.918 0 2.383 1.579 5.685l42.47 89.121v-80.422q0-2.979-.789-4.779-.79-1.8-2.821-3.337v-3.177l22.617 6.06v3.177q-2.03.449-2.82 1.826-.789 1.377-.789 4.356v114.774q0 3.078.789 4.878.79 1.801 2.82 3.337v3.178l-24.252-6.499v-3.177q2.369-.259 2.369-3.635 0-1.985-2.764-7.69zM253.456 147.849l-34.969-9.37L213.298 156q-1.071 3.652-1.071 5.918 0 4.334 3.778 7.021v3.151l-25.493-6.83v-3.152q2.256-.184 3.441-1.836 1.184-1.653 2.707-6.958l28.313-95.735q1.354-4.562 1.354-7.517 0-4.531-3.271-7.377v-3.152l27.298 7.315v3.151q-3.328.783-3.328 4.92 0 2.856 1.072 6.788l29.328 111.476q1.861 7.098 3.271 9.889t3.779 4.213v3.152l-28.313-7.586v-3.152q3.722-.086 3.722-5.11 0-2.068-1.128-6.409zm-4.851-19.719-12.464-51.208-12.634 44.483z"/>
    <g fill="#a60707">
        <path d="m85.195 121.854-11.563 19.547v36.049q0 3.054.818 4.46t2.792 1.763v3.152l-24.027 6.438v-3.152q2.031-1.529 2.82-3.316.79-1.788.79-4.841V68.093q0-2.955-.79-4.319-.789-1.364-2.82-1.805v-3.152l24.027-6.438v3.152q-2.03 1.43-2.82 3.267t-.79 4.792v47.08l31.698-53.702q2.199-3.742 2.199-5.613 0-2.856-3.271-3.063V45.14l31.472-8.433v3.152q-1.974 1.218-2.82 2.332t-4.907 8.012l-4.343 7.467-26.17 43.751 29.667 54.399q4.117 7.564 5.95 9.585 1.833 2.02 4.597 2.068v3.151l-30.062 8.055v-3.151q2.989-1.885 2.989-4.544 0-1.379-2.707-6.563zM368.112 129.34v44.618q0 2.955.817 4.361.818 1.406 2.792 1.764v3.152l-24.026 6.438v-3.152q2.03-1.529 2.82-3.317.789-1.787.789-4.742V64.601q0-3.053-.789-4.417-.79-1.365-2.82-1.806v-3.152l48.166-12.906q8.798-2.357 13.959-1.967t8.996 3.795q4.456 3.927 6.655 12.104 2.087 7.912 2.087 17.564 0 32.898-20.925 44.119l14.947 33.128q3.948 8.693 5.781 11.009t4.484 1.901v3.152l-27.862 7.465v-3.151q2.876-1.559 2.876-4.317 0-1.773-2.651-7.859l-15.566-35.424zm0-22.161 25.944-6.952q5.753-1.542 8.122-2.767 2.369-1.226 4.343-3.626 4.286-5.187 4.286-15.726t-4.286-13.429q-2.031-1.426-4.315-1.356-2.284.071-8.15 1.642l-25.944 6.952zM309.757 380.82l-34.968 9.369-5.189 20.454q-1.072 4.258-1.072 6.542 0 4.368 3.779 5.044v3.177l-25.493 6.831v-3.177q2.256-1.399 3.44-3.702t2.707-8.47l28.314-111.738q1.353-5.327 1.353-8.305 0-4.567-3.271-5.677v-3.177l27.298-7.314v3.177q-3.328 2.58-3.328 6.75 0 2.879 1.072 6.265l29.328 96.591q1.862 6.153 3.272 8.208 1.41 2.054 3.779 2.214v3.177l-28.314 7.587v-3.177q3.723-2.09 3.723-7.154 0-2.085-1.128-5.853zm-4.85-17.267-12.465-44.913-12.634 51.638zM547.816 419.54V304.865q0-3.078-.79-4.455-.789-1.377-2.82-1.826v-3.177l42.921-11.5q14.101-3.779 21.658-.144 10.829 5.339 16.018 22.912 4.117 13.79 4.117 33.746 0 35.048-12.238 56.696-5.133 9.119-12.014 14.289t-17.541 8.026l-42.921 11.501v-3.177q2.031-1.537 2.82-3.337.79-1.801.79-4.879m16.808-16.417 21.093-5.652q10.096-2.706 15.172-8.931 10.886-13.342 10.886-43.524 0-21.843-5.866-31.888-3.271-5.577-7.896-7.068-4.625-1.492-12.296.564l-21.093 5.652z"/>
    </g>
</svg>

<?xml version="1.0" encoding="UTF-8"?>
<!DOCTYPE svg PUBLIC "-//W3C//DTD SVG 1.1//EN" "http://www.w3.org/Graphics/SVG/1.1/DTD/svg11.dtd">
<svg version="1.1" xmlns="http://www.w3.org/2000/svg" xmlns:xlink="http://www.w3.org/1999/xlink" x="0" y="0" width="684" height="504" viewBox="0, 0, 684, 504">
  <g id="Shadow">
    <path d="M294.005,228.049 L199.019,244.316 C194.321,245.121 190.512,241.487 190.512,236.201 L190.512,69.484 C190.512,64.197 194.321,59.259 199.019,58.455 L294.005,42.188 C298.703,41.383 302.512,45.017 302.512,50.303 L302.512,217.02 C302.512,222.307 298.703,227.244 294.005,228.049 z" fill="#000000" fill-opacity="0.198"/>
    <path d="M41.533,226.277 L165.386,243.009 C171.511,243.836 176.477,240.222 176.477,234.935 L176.477,68.218 C176.477,62.932 171.511,57.975 165.386,57.148 L41.533,40.415 C35.408,39.588 30.442,43.203 30.442,48.489 L30.442,215.206 C30.442,220.493 35.408,225.449 41.533,226.277 z" fill="#000000" fill-opacity="0.198"/>
    <path d="M586.075,228.049 L491.088,244.316 C486.39,245.121 482.582,241.487 482.582,236.201 L482.582,69.484 C482.582,64.197 486.39,59.259 491.088,58.455 L586.075,42.188 C590.772,41.383 594.581,45.017 594.581,50.303 L594.581,217.02 C594.581,222.307 590.772,227.244 586.075,228.049 z" fill="#000000" fill-opacity="0.198"/>
    <path d="M333.603,226.277 L457.455,243.009 C463.58,243.836 468.546,240.222 468.546,234.935 L468.546,68.218 C468.546,62.932 463.58,57.975 457.455,57.148 L333.603,40.415 C327.477,39.588 322.511,43.203 322.511,48.489 L322.511,215.206 C322.511,220.493 327.477,225.449 333.603,226.277 z" fill="#000000" fill-opacity="0.198"/>
    <path d="M492.04,468.428 L397.053,484.695 C392.355,485.5 388.547,481.867 388.547,476.58 L388.547,309.863 C388.547,304.577 392.355,299.639 397.053,298.834 L492.04,282.567 C496.738,281.763 500.546,285.396 500.546,290.683 L500.546,457.399 C500.546,462.686 496.738,467.624 492.04,468.428 z" fill="#000000" fill-opacity="0.198"/>
    <path d="M199.971,468.428 L104.984,484.695 C100.286,485.5 96.478,481.867 96.478,476.58 L96.478,309.863 C96.478,304.577 100.286,299.639 104.984,298.834 L199.971,282.567 C204.668,281.763 208.477,285.396 208.477,290.683 L208.477,457.399 C208.477,462.686 204.668,467.624 199.971,468.428 z" fill="#000000" fill-opacity="0.198"/>
    <path d="M239.568,466.656 L363.42,483.388 C369.546,484.216 374.511,480.601 374.511,475.314 L374.511,308.598 C374.511,303.311 369.546,298.355 363.42,297.527 L239.568,280.795 C233.442,279.967 228.477,283.582 228.477,288.869 L228.477,455.585 C228.477,460.872 233.442,465.829 239.568,466.656 z" fill="#000000" fill-opacity="0.198"/>
    <path d="M531.637,466.656 L655.49,483.388 C661.615,484.216 666.581,480.601 666.581,475.314 L666.581,308.598 C666.581,303.311 661.615,298.355 655.49,297.527 L531.637,280.795 C525.512,279.967 520.546,283.582 520.546,288.869 L520.546,455.585 C520.546,460.872 525.512,465.829 531.637,466.656 z" fill="#000000" fill-opacity="0.198"/>
  </g>
  <g id="Cards">
    <path d="M292.939,36.485 L186.049,7.624 C180.762,6.197 176.477,9.325 176.477,14.612 L176.477,181.329 C176.477,186.615 180.762,192.058 186.049,193.486 L292.939,222.346 C298.226,223.773 302.512,220.645 302.512,215.358 L302.512,48.641 C302.512,43.355 298.226,37.912 292.939,36.485 z" fill="#C9C9C9"/>
    <path d="M585.009,36.485 L478.118,7.624 C472.832,6.197 468.546,9.325 468.546,14.612 L468.546,181.329 C468.546,186.615 472.832,192.058 478.118,193.486 L585.009,222.346 C590.295,223.773 594.581,220.645 594.581,215.358 L594.581,48.641 C594.581,43.355 590.295,37.912 585.009,36.485 z" fill="#C9C9C9"/>
    <path d="M198.905,277.956 L92.014,249.096 C86.728,247.669 82.442,250.797 82.442,256.084 L82.442,422.801 C82.442,428.087 86.728,433.53 92.014,434.957 L198.905,463.818 C204.191,465.245 208.477,462.116 208.477,456.83 L208.477,290.113 C208.477,284.826 204.191,279.384 198.905,277.956 z" fill="#C9C9C9"/>
    <path d="M490.974,277.956 L384.084,249.096 C378.797,247.669 374.511,250.797 374.511,256.084 L374.511,422.801 C374.511,428.087 378.797,433.53 384.084,434.957 L490.974,463.818 C496.26,465.245 500.546,462.116 500.546,456.83 L500.546,290.113 C500.546,284.826 496.26,279.384 490.974,277.956 z" fill="#C9C9C9"/>
    <path d="M40.014,36.485 L146.905,7.624 C152.191,6.197 156.477,9.325 156.477,14.612 L156.477,181.329 C156.477,186.615 152.191,192.058 146.905,193.486 L40.014,222.346 C34.728,223.773 30.442,220.645 30.442,215.358 L30.442,48.641 C30.442,43.355 34.728,37.912 40.014,36.485 z" fill="#FFFFFF"/>
    <path d="M332.084,36.485 L438.974,7.624 C444.261,6.197 448.546,9.325 448.546,14.612 L448.546,181.329 C448.546,186.615 444.261,192.058 438.974,193.486 L332.084,222.346 C326.797,223.773 322.511,220.645 322.511,215.358 L322.511,48.641 C322.511,43.355 326.797,37.912 332.084,36.485 z" fill="#FFFFFF"/>
    <path d="M530.118,277.956 L637.009,249.096 C642.295,247.669 646.581,250.797 646.581,256.084 L646.581,422.801 C646.581,428.087 642.295,433.53 637.009,434.957 L530.118,463.818 C524.832,465.245 520.546,462.116 520.546,456.83 L520.546,290.113 C520.546,284.826 524.832,279.384 530.118,277.956 z" fill="#FFFFFF"/>
    <path d="M238.049,277.956 L344.939,249.096 C350.226,247.669 354.511,250.797 354.511,256.084 L354.511,422.8 C354.511,428.087 350.226,433.53 344.939,434.957 L238.049,463.818 C232.762,465.245 228.477,462.116 228.477,456.83 L228.477,290.113 C228.477,284.826 232.762,279.384 238.049,277.956 z" fill="#FFFFFF"/>
  </g>
  <g id="Black_Letters">
    <path d="M491.816,166.137 L491.816,52.375 Q491.816,49.322 491.026,47.534 Q490.237,45.747 488.206,44.218 L488.206,41.066 L531.128,52.566 Q545.228,56.344 552.785,63.984 Q563.614,75.061 568.803,95.264 Q572.921,111.141 572.921,130.939 Q572.921,165.708 560.682,180.65 Q555.549,186.957 548.668,188.413 Q541.787,189.869 531.128,187.013 L488.206,175.512 L488.206,172.36 Q490.237,171.919 491.026,170.555 Q491.816,169.19 491.816,166.137 z M508.624,158.821 L529.717,164.473 Q539.813,167.178 544.889,163.712 Q555.775,156.287 555.775,126.344 Q555.775,104.675 549.909,91.58 Q546.638,84.301 542.013,80.353 Q537.388,76.405 529.717,74.35 L508.624,68.698 z" fill="#000000"/>
    <path d="M127.047,394.305 L174.367,406.985 Q176.116,407.453 177.018,406.305 Q177.92,405.157 178.484,401.734 L180.289,402.217 L180.289,437.265 L178.484,436.782 Q177.92,433.056 177.018,431.424 Q176.116,429.793 174.367,429.324 L106.63,411.174 L106.63,407.997 Q108.66,407.548 109.45,406.171 Q110.239,404.794 110.239,401.716 L110.239,287.041 Q110.239,283.963 109.45,282.163 Q108.66,280.362 106.63,278.826 L106.63,275.648 L130.656,282.086 L130.656,285.264 Q128.626,285.613 127.836,287.04 Q127.047,288.466 127.047,291.544 z" fill="#000000"/>
    <path d="M410.135,324.851 L410.135,407.258 Q410.135,410.336 410.925,412.136 Q411.715,413.936 413.745,415.473 L413.745,418.651 L391.128,412.59 L391.128,409.413 Q393.159,408.964 393.948,407.587 Q394.738,406.21 394.738,403.133 L394.738,288.358 Q394.738,285.379 393.948,283.579 Q393.159,281.779 391.128,280.242 L391.128,277.065 L417.298,284.077 L417.298,287.254 Q414.873,287.697 414.873,291.172 Q414.873,293.555 416.452,296.857 L458.922,385.978 L458.922,305.556 Q458.922,302.577 458.133,300.777 Q457.343,298.977 455.312,297.44 L455.312,294.263 L477.929,300.323 L477.929,303.5 Q475.899,303.949 475.109,305.326 Q474.32,306.703 474.32,309.682 L474.32,424.456 Q474.32,427.534 475.109,429.334 Q475.899,431.135 477.929,432.671 L477.929,435.849 L453.677,429.35 L453.677,426.173 Q456.046,425.914 456.046,422.538 Q456.046,420.553 453.282,414.848 z" fill="#000000"/>
    <path d="M253.456,147.849 L218.487,138.479 L213.298,156 Q212.227,159.652 212.227,161.918 Q212.227,166.252 216.005,168.939 L216.005,172.09 L190.512,165.26 L190.512,162.108 Q192.768,161.924 193.953,160.272 Q195.137,158.619 196.66,153.314 L224.973,57.579 Q226.327,53.017 226.327,50.062 Q226.327,45.531 223.056,42.685 L223.056,39.533 L250.354,46.848 L250.354,49.999 Q247.026,50.782 247.026,54.919 Q247.026,57.775 248.098,61.707 L277.426,173.183 Q279.287,180.281 280.697,183.072 Q282.107,185.863 284.476,187.285 L284.476,190.437 L256.163,182.851 L256.163,179.699 Q259.885,179.613 259.885,174.589 Q259.885,172.521 258.757,168.18 z M248.605,128.13 L236.141,76.922 L223.507,121.405 z" fill="#000000"/>
  </g>
  <g id="Red_Letters">
    <path d="M85.195,121.854 L73.632,141.401 L73.632,177.45 Q73.632,180.504 74.45,181.91 Q75.268,183.316 77.242,183.673 L77.242,186.825 L53.215,193.263 L53.215,190.111 Q55.246,188.582 56.035,186.795 Q56.825,185.007 56.825,181.954 L56.825,68.093 Q56.825,65.138 56.035,63.774 Q55.246,62.41 53.215,61.969 L53.215,58.817 L77.242,52.379 L77.242,55.531 Q75.212,56.961 74.422,58.798 Q73.632,60.635 73.632,63.59 L73.632,110.67 L105.33,56.968 Q107.529,53.226 107.529,51.355 Q107.529,48.499 104.258,48.292 L104.258,45.14 L135.73,36.707 L135.73,39.859 Q133.756,41.077 132.91,42.191 Q132.064,43.304 128.003,50.203 L123.66,57.67 L97.49,101.421 L127.157,155.82 Q131.274,163.384 133.107,165.405 Q134.94,167.425 137.704,167.473 L137.704,170.624 L107.642,178.679 L107.642,175.528 Q110.631,173.643 110.631,170.984 Q110.631,169.605 107.924,164.421 z" fill="#A60707"/>
    <path d="M368.112,129.34 L368.112,173.958 Q368.112,176.913 368.929,178.319 Q369.747,179.725 371.721,180.083 L371.721,183.235 L347.695,189.673 L347.695,186.521 Q349.725,184.992 350.515,183.204 Q351.304,181.417 351.304,178.462 L351.304,64.601 Q351.304,61.548 350.515,60.184 Q349.725,58.819 347.695,58.378 L347.695,55.226 L395.861,42.32 Q404.659,39.963 409.82,40.353 Q414.981,40.743 418.816,44.148 Q423.272,48.075 425.471,56.252 Q427.558,64.164 427.558,73.816 Q427.558,106.714 406.633,117.935 L421.58,151.063 Q425.528,159.756 427.361,162.072 Q429.194,164.388 431.845,163.973 L431.845,167.125 L403.983,174.59 L403.983,171.439 Q406.859,169.88 406.859,167.122 Q406.859,165.349 404.208,159.263 L388.642,123.839 z M368.112,107.179 L394.056,100.227 Q399.809,98.685 402.178,97.46 Q404.547,96.234 406.521,93.834 Q410.807,88.647 410.807,78.108 Q410.807,67.569 406.521,64.679 Q404.49,63.253 402.206,63.323 Q399.922,63.394 394.056,64.965 L368.112,71.917 z" fill="#A60707"/>
    <path d="M309.757,380.82 L274.789,390.189 L269.6,410.643 Q268.528,414.901 268.528,417.185 Q268.528,421.553 272.307,422.229 L272.307,425.406 L246.814,432.237 L246.814,429.06 Q249.07,427.661 250.254,425.358 Q251.439,423.055 252.961,416.888 L281.275,305.15 Q282.628,299.823 282.628,296.845 Q282.628,292.278 279.357,291.168 L279.357,287.991 L306.655,280.677 L306.655,283.854 Q303.327,286.434 303.327,290.604 Q303.327,293.483 304.399,296.869 L333.727,393.46 Q335.589,399.613 336.999,401.668 Q338.409,403.722 340.778,403.882 L340.778,407.059 L312.464,414.646 L312.464,411.469 Q316.187,409.379 316.187,404.315 Q316.187,402.23 315.059,398.462 z M304.907,363.553 L292.442,318.64 L279.808,370.278 z" fill="#A60707"/>
    <path d="M547.816,419.54 L547.816,304.865 Q547.816,301.787 547.026,300.41 Q546.237,299.033 544.206,298.584 L544.206,295.407 L587.127,283.907 Q601.228,280.128 608.785,283.763 Q619.614,289.102 624.803,306.675 Q628.92,320.465 628.92,340.421 Q628.92,375.469 616.682,397.117 Q611.549,406.236 604.668,411.406 Q597.787,416.576 587.127,419.432 L544.206,430.933 L544.206,427.756 Q546.237,426.219 547.026,424.419 Q547.816,422.618 547.816,419.54 z M564.624,403.123 L585.717,397.471 Q595.813,394.765 600.889,388.54 Q611.775,375.198 611.775,345.016 Q611.775,323.173 605.909,313.128 Q602.638,307.551 598.013,306.06 Q593.388,304.568 585.717,306.624 L564.624,312.276 z" fill="#A60707"/>
  </g>
</svg>
